X:1
T:yuiop[
T:yuik
M:4/4
L:1/8
Q:1/4=75
Z: Contributed 2015-09-17 15:19:55 by fred fred@gmail.com
K:
%%MIDI channel 10
%%MIDI program 0
%%MIDI drummap F 36 %bass drum 1
%%MIDI drummap c 38 %acoustic snare
%%MIDI drummap ^c 37 %side stick
%%MIDI drummap ^D 44 %pedal hi-hat
%%MIDI drummap ^f 51 %ride cymbal 1
%%MIDI drummap ^g 42 %closed hi hat
%%MIDI drummap ^a 46 %open hi hat
%%MIDI drummap ^b 49 %crash cymbal 1
%%MIDI drummap e 50 %high tom
%%MIDI drummap d 48 %hi mid tom
%%MIDI drummap B 45 %low tom
%%MIDI drummap A 41 %low floor tom
%%MIDI drummap ˆG %cowbell
K:C clef=perc
^G2 z2 ^G2 z2 | ^G2 ^G2 ^G2 ^G2 |!
"closed hi hat"^g2 ^g2 ^g2 ^g2 & F2 c2 F2 c2 | ^g2 ^g2 ^g2 ^g2 & F2 c2 F2 c2 |\
^g2 ^g2 ^g2 ^g2 & F2 c2 F2 c2 | ^g2 ^g2 ^g2 ^g2 & F2 c2 F2 c2 |!
^g2 ^g2 ^g2 ^g2 & F2 c2 F2 c2 | ^g2 ^g2 ^g2 ^g2 & F2 c2 F2 c2 |\
^g2 ^g2 ^g2 ^g2 & F2 c2 F2 c2 | {/c}c2 {/e}e2 {/c}c2 {/A}A2 & x2 x2 x2 x2 |!
^g2 ^g2 ^g2 ^g2 & F2 c2 F2 c2 | ^g2 ^g2 ^g2 ^g2 & F2 c2 F2 c2 |\
^g2 ^g2 ^g2 ^g2 & F2 c2 F2 c2 | ^g2 ^g2 ^g2 ^g2 & F2 c2 F2 c2 |!
^g2 ^g2 ^g2 ^g2 & F2 c2 F2 c2 | ^g2 ^g2 ^g2 ^g2 & F2 c2 F2 c2 |\
^g2 ^g2 ^g2 ^g2 & F2 c2 F2 c2 | {/c}c2 {/e}e2 {/c}c2 {/A}A2 & x2 x2 x2 x2 |!
"crash"^b2 x2 x2 x2 & F2 x2 x2 x2 |]
